assets/images/index/list-5.svg

<svg width="53" height="53" viewBox="0 0 53 53" fill="none" xmlns="http://www.w3.org/2000/svg">
<circle cx="26.5" cy="26.5" r="26.5" fill="white"/>
<path d="M13 43.4283V30.8568L22.7143 26.2854V30.8568L31.8571 26.2854V30.8568L41 26.2854V43.4283H13Z" stroke="#DF0112" stroke-width="1.5"/>
<path d="M19.2858 25.1428L14.7144 27.4285L15.8572 15.4285H18.7144L19.2858 25.1428Z" stroke="#0000FF" stroke-width="1.5"/>
<path d="M29.0003 24.5441L25.5718 26.2856L26.4289 17.1427H28.5718L29.0003 24.5441Z" stroke="#0000FF" stroke-width="1.5"/>
<path d="M16.5578 13.7143C16.5578 13.7143 17.5281 13.1429 17.5281 11.8095C17.5281 10.9237 16.8727 10.7327 16.5577 9.90476C16.2674 9.14142 16.5578 8 16.5578 8" stroke="#0000FF" stroke-width="1.5"/>
<path d="M26.8434 14.8575C26.8434 14.8575 27.8138 14.2861 27.8138 12.9528C27.8138 12.0669 27.1583 11.876 26.8434 11.048C26.5531 10.2847 26.8434 9.14325 26.8434 9.14325" stroke="#0000FF" stroke-width="1.5"/>
<line x1="16.4287" y1="36.9642" x2="21.0001" y2="36.9642" stroke="#DF0112" stroke-width="1.5"/>
<line x1="24.4287" y1="36.9642" x2="29.0001" y2="36.9642" stroke="#DF0112" stroke-width="1.5"/>
<line x1="32.4287" y1="36.9642" x2="37.0001" y2="36.9642" stroke="#DF0112" stroke-width="1.5"/>
</svg>

<svg width="53" height="53" fill="none" xmlns="http://www.w3.org/2000/svg"><circle cx="26.5" cy="26.5" r="26.5" fill="#fff"/><path d="M13 43.428V30.857l9.714-4.572v4.572l9.143-4.572v4.572L41 26.285v17.143H13z" stroke="#DF0112" stroke-width="1.5"/><path d="M19.286 25.143l-4.572 2.285 1.143-12h2.857l.572 9.715zM29 24.544l-3.428 1.742.857-9.143h2.143L29 24.544zm-12.442-10.83s.97-.571.97-1.905c0-.885-.655-1.076-.97-1.904-.29-.764 0-1.905 0-1.905m10.285 6.857s.97-.57.97-1.904c0-.886-.655-1.077-.97-1.905-.29-.763 0-1.905 0-1.905" stroke="#00F" stroke-width="1.5"/><path stroke="#DF0112" stroke-width="1.5" d="M16.429 36.964H21m3.429 0H29m3.429 0H37"/></svg>
